X: 6420
T: Castle, The
R: jig
M: 6/8
K: Adorian
cBA BAG|AGE DB,G,|~A,3 EDB,|DEG AGE|
cBA BAG|AGE DB,G,|~A,3 EGE|DB,G, A,2B:|
cBA a^ga|bag edB|GBd gfg|age dBG|
Ace a^ga|bag edB|GBd ~g3|edB A2B|
cBA a^ga|bag edB|GBd ~g3|GBd cBA|
cBc d^cd|ede gab|age dBG|EFG A2B||

